img/facebook.svg

<svg width="10" height="19" viewBox="0 0 10 19" fill="none" xmlns="http://www.w3.org/2000/svg">
<path d="M9.18359 10.5469L9.67578 7.3125H6.54688V5.20313C6.54688 4.28907 6.96875 3.44532 8.375 3.44532H9.81641V0.667969C9.81641 0.667969 8.51562 0.421875 7.28516 0.421875C4.71875 0.421875 3.03125 2.00391 3.03125 4.81641V7.3125H0.148438V10.5469H3.03125V18.4219H6.54688V10.5469H9.18359Z" fill="#292F36"/>
</svg>

<svg width="10" height="19" fill="none" xmlns="http://www.w3.org/2000/svg"><path d="m9.184 10.547.492-3.235h-3.13V5.204c0-.914.423-1.758 1.829-1.758h1.441V.668s-1.3-.246-2.53-.246C4.718.422 3.03 2.004 3.03 4.816v2.497H.148v3.234h2.883v7.875h3.516v-7.875h2.637Z" fill="#292F36"/></svg>
